src/assets/illustrations/swimlane-csharp-javascript.svg

<svg xmlns="http://www.w3.org/2000/svg" viewBox="0 0 636 300"><title>swimlane-csharp-javascript</title><path d="M354.6,207.645a3.328,3.328,0,0,0,2.233.855h138.34a3.324,3.324,0,0,0,3.324-3.314l.385-128.669L447.724,25.5h-90.9a3.324,3.324,0,0,0-3.324,3.324V205.173a3.316,3.316,0,0,0,1.1,2.472" fill="#eaa844"/><path d="M125.6,207.645a3.328,3.328,0,0,0,2.233.855h138.34a3.324,3.324,0,0,0,3.324-3.314l.385-128.669L218.724,25.5h-90.9a3.324,3.324,0,0,0-3.324,3.324V205.173a3.316,3.316,0,0,0,1.1,2.472" fill="#2b9355"/><path d="M134.207,135.585c-19.119,8.216-27.39,24.368-30.41,32.255l9.41,3.4c2.468-6.346,9.327-19.75,24.949-26.463Z" fill="#505050"/><path d="M104.858,179.261h0a5,5,0,0,0,6.438-2.925l2.024-5.394-9.388-3.445-2,5.325A5,5,0,0,0,104.858,179.261Z" fill="#29a55e"/><path d="M505.561,135.585c19.12,8.216,27.391,24.368,30.411,32.255l-9.41,3.4c-2.469-6.346-9.327-19.75-24.949-26.463Z" fill="#505050"/><path d="M534.911,179.261h0a5,5,0,0,1-6.438-2.925l-2.024-5.394,9.388-3.445,2,5.325A5,5,0,0,1,534.911,179.261Z" fill="#eaa844"/><path d="M310.032,147.671l-8.877,6.08a2.2,2.2,0,0,1-2.207.16l-23.73-11.649-4.406,8.976,28.6,14.043a2.893,2.893,0,0,0,2.909-.21l13.353-9.147Z" fill="#605d5a"/><path d="M321.512,145.868h0a5,5,0,0,0-6.95-1.3l-4.753,3.256,5.71,8.209,4.694-3.214A5,5,0,0,0,321.512,145.868Z" fill="#29a55e"/><path d="M333.168,147.671l8.877,6.08a2.2,2.2,0,0,0,2.206.16l23.73-11.649,4.407,8.976-28.6,14.043a2.893,2.893,0,0,1-2.909-.21l-13.353-9.147Z" fill="#605d5a"/><path d="M321.687,145.868h0a5,5,0,0,1,6.95-1.3l4.754,3.256-5.711,8.209-4.693-3.214A5,5,0,0,1,321.687,145.868Z" fill="#eaa844"/><path d="M133.6,214.645a3.328,3.328,0,0,0,2.233.855h138.34a3.324,3.324,0,0,0,3.324-3.314l.385-128.669L226.724,32.5h-90.9a3.324,3.324,0,0,0-3.324,3.324V212.173a3.316,3.316,0,0,0,1.1,2.472" fill="#29a55e"/><path d="M196.224,250.2a5.772,5.772,0,0,1,3.871,1.683,4.588,4.588,0,0,1,1.491,3.092l-.187,5.222a4.442,4.442,0,0,1-4.509,4.307l-15.693-.076a1.359,1.359,0,0,1-1.411-1.057,1.33,1.33,0,0,1,.628-1.645l8.072-4.056a3.983,3.983,0,0,0,1.662-1.086,4.987,4.987,0,0,0,.755-2.8Q191.017,249.823,196.224,250.2Z" fill="#b2b2b2"/><path d="M205.3,176.649c-1.243,41.406-3.112,73.077-3.952,79.625a4.96,4.96,0,0,1-5.282,3.828c-3.284-.028-5.365-1.281-5.347-4.535-1.487-11.223-5.3-43.9-8.649-78.238a10.783,10.783,0,0,1,11-11.826h0C199.037,165.652,205.474,170.677,205.3,176.649Z" fill="#b2b2b2"/><path d="M216.034,250.2a5.771,5.771,0,0,0-3.882,1.656,4.59,4.59,0,0,0-1.512,3.082l.152,5.224a4.442,4.442,0,0,0,4.479,4.337l15.693.03a1.356,1.356,0,0,0,1.418-1.047,1.329,1.329,0,0,0-.617-1.649l-8.044-4.111a3.983,3.983,0,0,1-1.655-1.1,5,5,0,0,1-.735-2.8Q221.244,249.864,216.034,250.2Z" fill="#b2b2b2"/><path d="M206.7,176.827c1.289,41.4,3.194,73.073,4.042,79.62a4.959,4.959,0,0,0,5.286,3.822c3.283-.032,5.364-1.286,5.342-4.541,1.474-11.225,5.251-43.9,8.561-78.248a10.784,10.784,0,0,0-11.012-11.813h0C212.941,165.823,206.509,170.855,206.7,176.827Z" fill="#b2b2b2"/><path d="M141.6,221.645a3.328,3.328,0,0,0,2.233.855h138.34a3.324,3.324,0,0,0,3.324-3.314l.385-128.669L234.724,39.5h-90.9a3.324,3.324,0,0,0-3.324,3.324V219.173a3.316,3.316,0,0,0,1.1,2.472" fill="#40bc77"/><path d="M234.5,39.5V87.087a3.413,3.413,0,0,0,3.413,3.413H285.5v-.186L234.59,39.5h-.09" fill="#88d5aa"/><ellipse cx="247.165" cy="108.171" rx="6.744" ry="3.709" transform="translate(137.624 354.732) rotate(-89.682)" fill="#3a312e"/><ellipse cx="210.413" cy="108.304" rx="6.744" ry="3.709" transform="translate(100.943 318.112) rotate(-89.682)" fill="#3a312e"/><path d="M210.422,187.391q-5.59,2.952-13.922,2.953-10.758,0-17.227-6.926t-6.468-18.176q0-12.093,7.277-19.547t18.457-7.453a29.61,29.61,0,0,1,11.883,2.074v6.293a24.106,24.106,0,0,0-11.953-3.023q-8.683,0-14.08,5.8t-5.4,15.5q0,9.21,5.045,14.677a17.163,17.163,0,0,0,13.236,5.467,24.832,24.832,0,0,0,13.149-3.375Z" fill="#605d5a"/><path d="M255.07,153.219l-.808,3.726h-9.176l-2.215,10.547h9.879l-.949,3.727h-9.668l-3.094,13.957h-4.43l3.024-13.957h-8.789l-2.953,13.957H221.5l2.953-13.957h-9.211l.7-3.727h9.317l2.144-10.547h-9.738l.738-3.726h9.739l2.953-14.133h4.429l-2.953,14.133h8.86l3.023-14.133h4.324l-2.953,14.133Zm-14.343,3.726h-8.86l-2.32,10.547h8.93Z" fill="#605d5a"/><path d="M362.6,214.645a3.328,3.328,0,0,0,2.233.855h138.34a3.324,3.324,0,0,0,3.324-3.314l.385-128.669L455.724,32.5h-90.9a3.324,3.324,0,0,0-3.324,3.324V212.173a3.316,3.316,0,0,0,1.1,2.472" fill="#edc54a"/><path d="M426.224,250.2a5.772,5.772,0,0,1,3.871,1.683,4.588,4.588,0,0,1,1.491,3.092l-.187,5.222a4.442,4.442,0,0,1-4.509,4.307l-15.693-.076a1.359,1.359,0,0,1-1.411-1.057,1.33,1.33,0,0,1,.628-1.645l8.072-4.056a3.983,3.983,0,0,0,1.662-1.086,4.987,4.987,0,0,0,.755-2.8Q421.017,249.823,426.224,250.2Z" fill="#b2b2b2"/><path d="M435.3,176.649c-1.243,41.406-3.112,73.077-3.952,79.625a4.96,4.96,0,0,1-5.282,3.828c-3.284-.028-5.365-1.281-5.347-4.535-1.487-11.223-5.3-43.9-8.649-78.238a10.783,10.783,0,0,1,11-11.826h0C429.037,165.652,435.474,170.677,435.3,176.649Z" fill="#b2b2b2"/><path d="M446.034,250.2a5.771,5.771,0,0,0-3.882,1.656,4.59,4.59,0,0,0-1.512,3.082l.152,5.224a4.442,4.442,0,0,0,4.479,4.337l15.693.03a1.356,1.356,0,0,0,1.418-1.047,1.329,1.329,0,0,0-.617-1.649l-8.044-4.111a3.983,3.983,0,0,1-1.655-1.1,5,5,0,0,1-.735-2.8Q451.244,249.864,446.034,250.2Z" fill="#b2b2b2"/><path d="M436.7,176.827c1.289,41.4,3.194,73.073,4.042,79.62a4.959,4.959,0,0,0,5.286,3.822c3.283-.032,5.364-1.286,5.342-4.541,1.474-11.225,5.251-43.9,8.561-78.248a10.784,10.784,0,0,0-11.012-11.813h0C442.941,165.823,436.509,170.855,436.7,176.827Z" fill="#b2b2b2"/><path d="M371.6,221.645a3.328,3.328,0,0,0,2.233.855h138.34a3.324,3.324,0,0,0,3.324-3.314l.385-128.669L464.724,39.5h-90.9a3.324,3.324,0,0,0-3.324,3.324V219.173a3.316,3.316,0,0,0,1.1,2.472" fill="#f0db4f"/><path d="M464.5,39.5V87.087a3.413,3.413,0,0,0,3.413,3.413H515.5v-.186L464.59,39.5h-.09" fill="#f4f489"/><ellipse cx="442.032" cy="108.171" rx="6.744" ry="3.709" transform="translate(331.409 549.596) rotate(-89.682)" fill="#3a312e"/><ellipse cx="405.28" cy="108.304" rx="6.744" ry="3.709" transform="translate(294.728 512.976) rotate(-89.682)" fill="#3a312e"/><path d="M459.522,189.93q0,8.964-4.429,13.939a15.036,15.036,0,0,1-11.813,4.975,16.738,16.738,0,0,1-5.66-.809V200.16a8.969,8.969,0,0,0,5.168,1.371q8.365,0,8.367-12.937V157.586h8.367Z" fill="#605d5a"/><path d="M469.19,206v-8.613a13.289,13.289,0,0,0,2.76,1.9,21.306,21.306,0,0,0,3.393,1.424,26.668,26.668,0,0,0,3.586.9,19.2,19.2,0,0,0,3.3.316q5.274,0,7.858-1.758a5.785,5.785,0,0,0,2.584-5.1,5.554,5.554,0,0,0-.862-3.111,9.038,9.038,0,0,0-2.408-2.408,25.38,25.38,0,0,0-3.638-2.092q-2.092-1-4.483-2.092-2.567-1.371-4.781-2.777a20.579,20.579,0,0,1-3.85-3.111,12.993,12.993,0,0,1-2.566-3.85,12.538,12.538,0,0,1-.932-5.027,11.6,11.6,0,0,1,1.6-6.17,13.5,13.5,0,0,1,4.219-4.324,19.314,19.314,0,0,1,5.959-2.532,28.332,28.332,0,0,1,6.82-.826q7.91,0,11.531,1.793V166.8q-4.29-3.094-11.039-3.094a19.726,19.726,0,0,0-3.709.352,11.017,11.017,0,0,0-3.305,1.16,7.162,7.162,0,0,0-2.373,2.074,5.08,5.08,0,0,0-.914,3.059,5.784,5.784,0,0,0,.7,2.918,7.544,7.544,0,0,0,2.057,2.25,21.033,21.033,0,0,0,3.305,1.986q1.952.966,4.517,2.092,2.637,1.371,4.975,2.883a23.4,23.4,0,0,1,4.113,3.339,14.713,14.713,0,0,1,2.813,4.061,11.946,11.946,0,0,1,1.037,5.08,11.923,11.923,0,0,1-5.713,10.758,18.574,18.574,0,0,1-6.029,2.39,33.946,33.946,0,0,1-7.207.739,30.7,30.7,0,0,1-3.112-.194q-1.845-.194-3.779-.562a34.542,34.542,0,0,1-3.656-.9A11.578,11.578,0,0,1,469.19,206Z" fill="#605d5a"/></svg>

<svg width="636" height="300" viewBox="0 0 636 300" fill="none" xmlns="http://www.w3.org/2000/svg">
<path d="M354.6 207.645C355.213 208.197 356.008 208.501 356.833 208.5H495.173C496.053 208.5 496.897 208.151 497.52 207.53C498.143 206.909 498.494 206.066 498.497 205.186L498.882 76.517L447.724 25.5H356.824C355.942 25.5 355.097 25.8502 354.474 26.4736C353.85 27.0969 353.5 27.9424 353.5 28.824V205.173C353.499 205.639 353.597 206.1 353.786 206.526C353.976 206.952 354.253 207.333 354.6 207.645Z" fill="#EAA844"/>
<path d="M125.6 207.645C126.213 208.197 127.008 208.501 127.833 208.5H266.173C267.053 208.5 267.897 208.151 268.52 207.53C269.143 206.909 269.494 206.066 269.497 205.186L269.882 76.517L218.724 25.5H127.824C126.942 25.5 126.097 25.8502 125.474 26.4736C124.85 27.0969 124.5 27.9424 124.5 28.824V205.173C124.499 205.639 124.597 206.1 124.786 206.526C124.976 206.952 125.253 207.333 125.6 207.645Z" fill="#2B9355"/>
<path d="M134.207 135.585C115.088 143.801 106.817 159.953 103.797 167.84L113.207 171.24C115.675 164.894 122.534 151.49 138.156 144.777L134.207 135.585Z" fill="#505050"/>
<path d="M104.858 179.261C105.473 179.492 106.127 179.599 106.783 179.577C107.44 179.555 108.085 179.403 108.683 179.132C109.281 178.86 109.819 178.474 110.268 177.994C110.716 177.514 111.066 176.951 111.296 176.336L113.32 170.942L103.932 167.497L101.932 172.822C101.701 173.437 101.594 174.091 101.616 174.748C101.638 175.404 101.79 176.05 102.061 176.648C102.333 177.246 102.72 177.784 103.2 178.233C103.68 178.681 104.243 179.03 104.858 179.261Z" fill="#29A55E"/>
<path d="M505.561 135.585C524.681 143.801 532.952 159.953 535.972 167.84L526.562 171.24C524.093 164.894 517.235 151.49 501.613 144.777L505.561 135.585Z" fill="#505050"/>
<path d="M534.911 179.261C534.296 179.492 533.642 179.599 532.986 179.577C532.33 179.555 531.684 179.403 531.086 179.132C530.489 178.86 529.95 178.474 529.502 177.994C529.053 177.514 528.704 176.951 528.473 176.336L526.449 170.942L535.837 167.497L537.837 172.822C538.068 173.437 538.175 174.091 538.153 174.748C538.131 175.404 537.98 176.05 537.708 176.648C537.437 177.246 537.05 177.784 536.57 178.233C536.09 178.681 535.526 179.03 534.911 179.261Z" fill="#EAA844"/>
<path d="M310.033 147.671L301.155 153.751C300.835 153.97 300.461 154.101 300.074 154.129C299.686 154.157 299.298 154.082 298.948 153.911L275.218 142.262L270.812 151.238L299.412 165.281C299.873 165.507 300.384 165.606 300.895 165.569C301.407 165.532 301.899 165.36 302.322 165.071L315.674 155.924L310.033 147.671Z" fill="#605D5A"/>
<path d="M321.512 145.868C320.762 144.774 319.609 144.023 318.306 143.779C317.002 143.535 315.656 143.819 314.562 144.568L309.809 147.824L315.519 156.033L320.213 152.819C320.754 152.448 321.218 151.974 321.576 151.424C321.935 150.873 322.181 150.258 322.302 149.613C322.422 148.967 322.415 148.304 322.279 147.662C322.144 147.019 321.883 146.41 321.512 145.868Z" fill="#29A55E"/>
<path d="M333.167 147.671L342.044 153.751C342.365 153.97 342.738 154.1 343.126 154.128C343.513 154.156 343.901 154.081 344.25 153.911L367.98 142.262L372.387 151.238L343.787 165.281C343.327 165.507 342.816 165.606 342.305 165.569C341.793 165.532 341.301 165.36 340.878 165.071L327.525 155.924L333.167 147.671Z" fill="#605D5A"/>
<path d="M321.687 145.868C322.437 144.774 323.59 144.023 324.893 143.779C326.197 143.535 327.543 143.819 328.637 144.568L333.391 147.824L327.68 156.033L322.987 152.819C322.446 152.448 321.982 151.974 321.624 151.424C321.265 150.874 321.018 150.258 320.898 149.613C320.777 148.967 320.785 148.304 320.92 147.662C321.056 147.019 321.316 146.41 321.687 145.868Z" fill="#EAA844"/>
<path d="M133.6 214.645C134.213 215.197 135.008 215.501 135.833 215.5H274.173C275.053 215.5 275.897 215.151 276.52 214.53C277.143 213.909 277.494 213.066 277.497 212.186L277.882 83.517L226.724 32.5H135.824C135.387 32.5 134.955 32.586 134.552 32.753C134.149 32.9201 133.782 33.1649 133.474 33.4736C133.165 33.7822 132.92 34.1487 132.753 34.552C132.586 34.9552 132.5 35.3875 132.5 35.824V212.173C132.499 212.639 132.597 213.1 132.786 213.526C132.976 213.952 133.253 214.333 133.6 214.645Z" fill="#29A55E"/>
<path d="M196.224 250.2C197.68 250.252 199.063 250.853 200.095 251.883C200.973 252.682 201.508 253.79 201.586 254.975L201.399 260.197C201.364 261.363 200.871 262.469 200.027 263.275C199.183 264.081 198.056 264.522 196.89 264.504L181.197 264.428C180.874 264.448 180.555 264.353 180.297 264.159C180.038 263.966 179.857 263.686 179.786 263.371C179.672 263.067 179.673 262.733 179.789 262.43C179.904 262.127 180.127 261.877 180.414 261.726L188.486 257.67C189.123 257.454 189.694 257.081 190.148 256.584C190.671 255.746 190.934 254.772 190.903 253.784C190.979 251.143 192.753 249.949 196.224 250.2Z" fill="#B2B2B2"/>
<path d="M205.3 176.649C204.057 218.055 202.188 249.726 201.348 256.274C201.08 257.443 200.396 258.475 199.425 259.178C198.454 259.882 197.261 260.21 196.066 260.102C192.782 260.074 190.701 258.821 190.719 255.567C189.232 244.344 185.419 211.667 182.07 177.329C181.922 175.809 182.099 174.276 182.588 172.829C183.077 171.383 183.867 170.057 184.907 168.939C185.947 167.821 187.212 166.936 188.62 166.344C190.027 165.752 191.544 165.465 193.07 165.503C199.037 165.652 205.474 170.677 205.3 176.649Z" fill="#B2B2B2"/>
<path d="M216.035 250.2C214.578 250.242 213.191 250.834 212.153 251.856C211.269 252.649 210.727 253.754 210.641 254.938L210.793 260.162C210.82 261.328 211.305 262.437 212.143 263.248C212.981 264.06 214.105 264.509 215.272 264.499L230.965 264.529C231.287 264.552 231.607 264.459 231.867 264.267C232.127 264.075 232.31 263.797 232.383 263.482C232.499 263.179 232.5 262.844 232.386 262.541C232.273 262.237 232.052 261.985 231.766 261.833L223.722 257.722C223.086 257.501 222.516 257.123 222.067 256.622C221.551 255.782 221.295 254.807 221.332 253.822C221.274 251.183 219.508 249.976 216.035 250.2Z" fill="#B2B2B2"/>
<path d="M206.699 176.827C207.988 218.227 209.893 249.9 210.741 256.447C211.011 257.616 211.696 258.647 212.668 259.349C213.64 260.052 214.833 260.379 216.027 260.269C219.31 260.237 221.391 258.983 221.369 255.728C222.843 244.503 226.62 211.828 229.93 177.48C230.077 175.96 229.899 174.427 229.408 172.981C228.917 171.536 228.125 170.211 227.084 169.094C226.043 167.977 224.777 167.095 223.369 166.504C221.962 165.913 220.445 165.628 218.918 165.667C212.94 165.823 206.508 170.855 206.699 176.827Z" fill="#B2B2B2"/>
<path d="M141.6 221.645C142.213 222.197 143.008 222.501 143.833 222.5H282.173C283.053 222.5 283.897 222.151 284.52 221.53C285.143 220.909 285.494 220.066 285.497 219.186L285.882 90.517L234.724 39.5H143.824C143.387 39.5 142.955 39.586 142.552 39.753C142.149 39.9201 141.782 40.1649 141.474 40.4736C141.165 40.7822 140.92 41.1487 140.753 41.552C140.586 41.9552 140.5 42.3875 140.5 42.824V219.173C140.499 219.639 140.597 220.1 140.786 220.526C140.976 220.952 141.253 221.333 141.6 221.645Z" fill="#40BC77"/>
<path d="M234.5 39.5V87.087C234.5 87.9922 234.86 88.8603 235.5 89.5004C236.14 90.1404 237.008 90.5 237.913 90.5H285.5V90.314L234.59 39.5H234.5Z" fill="#88D5AA"/>
<path d="M250.873 108.192C250.894 104.467 249.25 101.439 247.202 101.427C245.153 101.416 243.476 104.426 243.455 108.151C243.435 111.875 245.079 114.904 247.127 114.915C249.175 114.926 250.853 111.916 250.873 108.192Z" fill="#3A312E"/>
<path d="M214.121 108.324C214.142 104.599 212.498 101.571 210.45 101.559C208.401 101.548 206.724 104.558 206.703 108.283C206.683 112.007 208.327 115.036 210.375 115.047C212.423 115.059 214.101 112.048 214.121 108.324Z" fill="#3A312E"/>
<path d="M210.422 187.391C206.695 189.359 202.054 190.343 196.5 190.344C189.328 190.344 183.585 188.035 179.273 183.418C174.96 178.801 172.804 172.742 172.805 165.242C172.805 157.18 175.23 150.664 180.082 145.695C184.933 140.726 191.085 138.241 198.539 138.242C202.6 138.111 206.645 138.817 210.422 140.316V146.609C206.767 144.582 202.648 143.541 198.469 143.586C192.68 143.586 187.987 145.519 184.389 149.386C180.791 153.253 178.991 158.419 178.989 164.886C178.989 171.026 180.67 175.918 184.034 179.563C185.716 181.374 187.77 182.799 190.054 183.743C192.339 184.687 194.8 185.126 197.27 185.03C201.881 185.148 206.434 183.98 210.419 181.655L210.422 187.391Z" fill="#605D5A"/>
<path d="M255.07 153.219L254.262 156.945H245.086L242.871 167.492H252.75L251.801 171.219H242.133L239.039 185.176H234.609L237.633 171.219H228.844L225.891 185.176H221.5L224.453 171.219H215.242L215.942 167.492H225.259L227.403 156.945H217.665L218.403 153.219H228.142L231.095 139.086H235.524L232.571 153.219H241.431L244.454 139.086H248.778L245.825 153.219H255.07ZM240.727 156.945H231.867L229.547 167.492H238.477L240.727 156.945Z" fill="#605D5A"/>
<path d="M362.6 214.645C363.213 215.197 364.008 215.501 364.833 215.5H503.173C504.053 215.5 504.897 215.151 505.52 214.53C506.143 213.909 506.494 213.066 506.497 212.186L506.882 83.517L455.724 32.5H364.824C363.942 32.5 363.097 32.8502 362.474 33.4736C361.85 34.0969 361.5 34.9424 361.5 35.824V212.173C361.499 212.639 361.597 213.1 361.786 213.526C361.976 213.952 362.253 214.333 362.6 214.645Z" fill="#EDC54A"/>
<path d="M426.224 250.2C427.68 250.252 429.063 250.853 430.095 251.883C430.973 252.682 431.508 253.79 431.586 254.975L431.399 260.197C431.364 261.363 430.871 262.469 430.027 263.275C429.183 264.081 428.056 264.522 426.89 264.504L411.197 264.428C410.874 264.448 410.555 264.353 410.297 264.159C410.038 263.966 409.857 263.686 409.786 263.371C409.672 263.067 409.673 262.733 409.789 262.43C409.904 262.127 410.127 261.877 410.414 261.726L418.486 257.67C419.123 257.454 419.694 257.081 420.148 256.584C420.671 255.746 420.934 254.772 420.903 253.784C420.979 251.143 422.753 249.949 426.224 250.2Z" fill="#B2B2B2"/>
<path d="M435.3 176.649C434.057 218.055 432.188 249.726 431.348 256.274C431.08 257.443 430.396 258.475 429.425 259.178C428.454 259.882 427.261 260.21 426.066 260.102C422.782 260.074 420.701 258.821 420.719 255.567C419.232 244.344 415.419 211.667 412.07 177.329C411.922 175.809 412.099 174.276 412.588 172.829C413.077 171.383 413.867 170.057 414.907 168.939C415.947 167.821 417.212 166.936 418.62 166.344C420.027 165.752 421.544 165.465 423.07 165.503C429.037 165.652 435.474 170.677 435.3 176.649Z" fill="#B2B2B2"/>
<path d="M446.035 250.2C444.578 250.242 443.191 250.834 442.153 251.856C441.269 252.649 440.727 253.754 440.641 254.938L440.793 260.162C440.82 261.328 441.305 262.437 442.143 263.248C442.981 264.06 444.105 264.509 445.272 264.499L460.965 264.529C461.287 264.552 461.607 264.459 461.867 264.267C462.127 264.075 462.31 263.797 462.383 263.482C462.499 263.179 462.5 262.844 462.386 262.541C462.273 262.237 462.052 261.985 461.766 261.833L453.722 257.722C453.086 257.501 452.516 257.123 452.067 256.622C451.551 255.782 451.295 254.807 451.332 253.822C451.274 251.183 449.508 249.976 446.035 250.2Z" fill="#B2B2B2"/>
<path d="M436.699 176.827C437.988 218.227 439.893 249.9 440.741 256.447C441.011 257.616 441.696 258.647 442.668 259.349C443.64 260.052 444.833 260.379 446.027 260.269C449.31 260.237 451.391 258.983 451.369 255.728C452.843 244.503 456.62 211.828 459.93 177.48C460.077 175.96 459.899 174.427 459.408 172.981C458.917 171.536 458.125 170.211 457.084 169.094C456.043 167.977 454.777 167.095 453.369 166.504C451.962 165.913 450.445 165.628 448.918 165.667C442.94 165.823 436.508 170.855 436.699 176.827Z" fill="#B2B2B2"/>
<path d="M371.6 221.645C372.213 222.197 373.008 222.501 373.833 222.5H512.173C513.053 222.5 513.897 222.151 514.52 221.53C515.143 220.909 515.494 220.066 515.497 219.186L515.882 90.517L464.724 39.5H373.824C372.942 39.5 372.097 39.8502 371.474 40.4736C370.85 41.0969 370.5 41.9424 370.5 42.824V219.173C370.499 219.639 370.597 220.1 370.786 220.526C370.976 220.952 371.253 221.333 371.6 221.645Z" fill="#F0DB4F"/>
<path d="M464.5 39.5V87.087C464.5 87.9922 464.86 88.8603 465.5 89.5004C466.14 90.1404 467.008 90.5 467.913 90.5H515.5V90.314L464.59 39.5H464.5Z" fill="#F4F489"/>
<path d="M445.74 108.192C445.761 104.467 444.117 101.439 442.069 101.427C440.021 101.416 438.343 104.426 438.323 108.151C438.302 111.875 439.946 114.904 441.994 114.915C444.042 114.926 445.72 111.916 445.74 108.192Z" fill="#3A312E"/>
<path d="M408.989 108.324C409.009 104.599 407.365 101.571 405.317 101.559C403.269 101.548 401.591 104.558 401.571 108.283C401.55 112.007 403.194 115.036 405.242 115.047C407.291 115.059 408.968 112.048 408.989 108.324Z" fill="#3A312E"/>
<path d="M459.521 189.93C459.521 195.906 458.045 200.552 455.092 203.869C453.611 205.517 451.785 206.818 449.742 207.678C447.7 208.538 445.493 208.936 443.279 208.844C441.36 208.901 439.445 208.627 437.619 208.035V200.16C439.162 201.132 440.965 201.61 442.787 201.531C448.364 201.531 451.153 197.219 451.154 188.594V157.586H459.521V189.93Z" fill="#605D5A"/>
<path d="M469.191 206V197.387C470.027 198.134 470.954 198.773 471.951 199.287C473.039 199.859 474.174 200.335 475.344 200.711C476.517 201.094 477.715 201.394 478.93 201.611C480.019 201.811 481.123 201.917 482.23 201.927C485.746 201.927 488.365 201.341 490.088 200.169C490.924 199.616 491.601 198.855 492.054 197.961C492.507 197.067 492.72 196.07 492.672 195.069C492.699 193.97 492.399 192.887 491.81 191.958C491.167 191.01 490.35 190.193 489.402 189.55C488.249 188.753 487.032 188.054 485.764 187.458C484.369 186.791 482.875 186.094 481.281 185.366C479.57 184.452 477.976 183.526 476.5 182.589C475.096 181.711 473.803 180.666 472.65 179.478C471.571 178.359 470.702 177.055 470.084 175.628C469.431 174.034 469.114 172.323 469.152 170.601C469.099 168.435 469.653 166.298 470.752 164.431C471.814 162.69 473.256 161.211 474.971 160.107C476.801 158.934 478.815 158.078 480.93 157.575C483.161 157.024 485.452 156.747 487.75 156.749C493.023 156.749 496.867 157.347 499.281 158.542V166.8C496.421 164.737 492.741 163.706 488.242 163.706C486.997 163.706 485.755 163.824 484.533 164.058C483.376 164.266 482.261 164.658 481.228 165.218C480.293 165.725 479.482 166.433 478.855 167.292C478.229 168.187 477.909 169.26 477.941 170.351C477.914 171.368 478.155 172.375 478.641 173.269C479.166 174.151 479.866 174.917 480.698 175.519C481.736 176.281 482.843 176.946 484.003 177.505C485.304 178.149 486.81 178.846 488.52 179.597C490.278 180.511 491.936 181.472 493.495 182.48C494.988 183.434 496.368 184.554 497.608 185.819C498.768 187.004 499.719 188.378 500.421 189.88C501.134 191.477 501.488 193.211 501.458 194.96C501.561 197.101 501.084 199.23 500.079 201.124C499.074 203.017 497.576 204.604 495.745 205.718C493.891 206.862 491.85 207.671 489.716 208.108C487.347 208.611 484.931 208.859 482.509 208.847C481.469 208.835 480.43 208.77 479.397 208.653C478.167 208.524 476.907 208.336 475.618 208.091C474.384 207.858 473.163 207.557 471.962 207.191C470.99 206.917 470.059 206.516 469.191 206Z" fill="#605D5A"/>
</svg>
